Point/img/telegram.svg

<svg width="83" height="88" viewBox="0 0 83 88" fill="none" xmlns="http://www.w3.org/2000/svg">
<path fill-rule="evenodd" clip-rule="evenodd" d="M49.1552 1.91225C39.3152 0.933912 20.8872 -1.9644 12.689 3.40155C4.41789 8.81529 2.87119 19.2205 1.27651 28.7714C-0.155518 37.3482 3.89821 45.3449 6.12949 53.7598C8.55348 62.9013 3.52361 74.6849 10.5596 81.2086C17.9017 88.0161 35.9606 87.6115 46.0143 86.1958C55.4995 84.8602 58.5564 78.1057 66.4193 72.7918C74.5081 67.3253 77.0539 74.2722 79.9808 65.1438C82.9098 56.0087 83.9718 39.245 79.9808 30.4961C76.4955 22.856 74.8633 14.1864 68.2154 8.87137C61.3425 3.37639 58.0172 2.79336 49.1552 1.91225Z" fill="#C6E1F6"/>
<g clip-path="url(#clip0_639_45)">
<path d="M42.4319 11.9092C25.2607 11.9092 11.3409 25.8289 11.3409 43.0001C11.3409 60.1713 25.2607 74.091 42.4319 74.091C59.603 74.091 73.5228 60.1713 73.5228 43.0001C73.5228 25.8289 59.603 11.9092 42.4319 11.9092Z" fill="#40B3E0"/>
<path d="M57.5602 29.7938L52.0068 57.7924C52.0068 57.7924 51.2303 59.7341 49.0945 58.8021L36.2797 48.9774L31.6199 46.7252L23.7758 44.0844C23.7758 44.0844 22.572 43.6574 22.4554 42.7254C22.3388 41.7934 23.8147 41.2887 23.8147 41.2887L54.9969 29.0564C54.9969 29.0564 57.56 27.9303 57.56 29.7943" fill="white"/>
<path d="M35.295 57.4772C35.295 57.4772 34.921 57.4423 34.4546 55.9664C33.989 54.4908 31.62 46.7244 31.62 46.7244L50.4538 34.7641C50.4538 34.7641 51.5413 34.1039 51.5024 34.7641C51.5024 34.7641 51.6965 34.8807 51.1138 35.4243C50.5315 35.9682 36.3189 48.7439 36.3189 48.7439" fill="#D2E5F1"/>
<path d="M41.1932 52.744L36.1247 57.3653C36.1247 57.3653 35.7283 57.666 35.2949 57.4776L36.2655 48.8936" fill="#B5CFE4"/>
</g>
<defs>
<clipPath id="clip0_639_45">
<rect width="62.1818" height="62.1818" fill="white" transform="translate(11.3409 11.9092)"/>
</clipPath>
</defs>
</svg>

<svg width="83" height="88" fill="none" xmlns="http://www.w3.org/2000/svg"><path fill-rule="evenodd" clip-rule="evenodd" d="M49.155 1.912c-9.84-.978-28.268-3.876-36.466 1.49C4.418 8.815 2.871 19.22 1.277 28.772-.156 37.347 3.898 45.344 6.129 53.76c2.424 9.141-2.605 20.925 4.43 27.449 7.343 6.807 25.402 6.403 35.455 4.987 9.485-1.336 12.542-8.09 20.405-13.404 8.09-5.467 10.635 1.48 13.562-7.648 2.929-9.135 3.99-25.899 0-34.648-3.485-7.64-5.118-16.31-11.766-21.625-6.873-5.495-10.198-6.078-19.06-6.959z" fill="#C6E1F6"/><g clip-path="url(#clip0_639_45)"><path d="M42.432 11.91C25.26 11.91 11.34 25.828 11.34 43s13.92 31.091 31.09 31.091c17.172 0 31.092-13.92 31.092-31.09 0-17.172-13.92-31.092-31.091-31.092z" fill="#40B3E0"/><path d="M57.56 29.794l-5.553 27.998s-.777 1.942-2.913 1.01L36.28 48.977l-4.66-2.252-7.844-2.64s-1.204-.428-1.32-1.36c-.117-.932 1.359-1.436 1.359-1.436l31.182-12.233s2.563-1.126 2.563.738" fill="#fff"/><path d="M35.295 57.477s-.374-.035-.84-1.51c-.466-1.476-2.835-9.243-2.835-9.243l18.834-11.96s1.087-.66 1.048 0c0 0 .194.117-.388.66-.582.544-14.795 13.32-14.795 13.32" fill="#D2E5F1"/><path d="M41.193 52.744l-5.068 4.621s-.397.301-.83.113l.97-8.584" fill="#B5CFE4"/></g><defs><clipPath id="clip0_639_45"><path fill="#fff" transform="translate(11.34 11.91)" d="M0 0h62.182v62.182H0z"/></clipPath></defs></svg>
